images/labajainspira-itinerante/2024/sedes/marker.svg

<svg fill="none" height="120" viewBox="0 0 87 120" width="87" xmlns="http://www.w3.org/2000/svg"><path d="m9.26836 64.9642 25.50254 45.6288c3.8164 6.829 13.6418 6.829 17.4582 0l25.5025-45.6288c10.4854-18.7605 4.8744-42.7668-12.9011-54.5111-12.9971-8.5872-29.6638-8.5872-42.6609 0-17.77557 11.7443-23.38666 35.7506-12.90124 54.5111z" fill="#fff" stroke="#fff" stroke-width="8"/><g fill="#d93829"><path d="m46.797 104.114c2.3116-4.815 4.9705-9.4755 7.9579-13.9494 3.0797-4.8391 6.1624-9.6809 9.2482-14.5256 5.6481-8.8697 12.0902-17.8072 14.7518-27.9827 1.3688-5.0321 1.5993-10.278.6767-15.399-.9744-5.1895-3.6992-9.6667-7.218-13.6861-3.4105-3.8921-7.1549-7.6995-12.1444-9.75152-4.7988-1.98544-10.0069-2.94412-15.2481-2.80675-4.3.10573-8.5584.8204-12.6316 2.1199-1.9668.59057-3.8581 1.38401-5.6391 2.36577-2.2618 1.3942-4.3159 3.0652-6.1082 4.9691-1.9666 1.9869-3.8017 4.0853-5.4948 6.2834-1.5737 2.1499-2.8786 4.4631-3.8887 6.8939-2.02788 4.6586-3.06692 9.6449-3.05865 14.6782 0 6.843 2.40905 12.9229 5.41355 19.0367 2.9052 5.8764 6.3158 11.5492 9.7714 17.1373 5.1429 8.2309 10.5744 16.3063 16.2947 24.2258l.2888.407c1.2 1.646 3.609 2.544 5.5579 1.366 1.7413-1.052 2.7067-3.46 1.4616-5.224-4.5925-6.3001-8.9594-12.7192-13.191-19.2824-3.4917-5.4439-6.8932-10.9132-10.015-16.5352-1.4346-2.5439-2.806-5.1895-4.0511-7.8521l-.397-.848c-.2256-.4749.406.9328.1083.2459l-.1625-.3731c-.2706-.602-.5233-1.2126-.7669-1.8231-.415-1.0515-.803-2.1029-1.1368-3.1799-.1353-.4579-.2617-.9073-.3699-1.3652-.1083-.4579-.2436-1.0345-.3339-1.5602-.0451-.2375-.0812-.4749-.1263-.7123.1444.848 0-.3477-.0451-.4155-.2526-2.2862-.2526-4.5908 0-6.877 0 .0509.1534-1.1362.0722-.5766-.0812.5597.1083-.6275.0992-.5766.0812-.4833.1805-.9582.2797-1.4331.2672-1.188.5984-2.3625.9925-3.519.1895-.5851.397-1.1532.6226-1.6959.0902-.212.5955-1.3822.3158-.7717.5083-1.1194 1.0867-2.2095 1.7323-3.2646.6438-1.0305 1.3518-2.0244 2.1203-2.9763.4511-.5682-.5865.6698.2256-.2714l.5052-.5851c.4241-.4833.9023-.9582 1.3083-1.433 1.5405-1.7546 3.2401-3.3803 5.0797-4.8589-.6587.5003.2977-.195.3609-.2374.0631-.0424.406-.2628.6135-.3816.4711-.2808.9591-.5356 1.4617-.7631.2901-.1832.6101-.3207.9473-.4071-.5774 0-.7308.2799-.3338.1357l.794-.2883c1.6415-.5736 3.3238-1.0383 5.0346-1.3906.9022-.1951 1.8045-.3307 2.7067-.4834.6497-.1102-1.0105.1018 0 0l.6497-.0678c.6045-.0594 1.218-.1102 1.8045-.1357 1.191-.0678 2.2827-.0678 3.3654-.0678.4692 0 .9022.0424 1.3985.0763l.9022.0678.5234.0594h-.1895c1.1368.1781 2.2646.3731 3.3834.6529.4692.1187.9474.2544 1.4166.3901l.9022.2883.7399.2629c-.5233-.2036.6225.2628.5684.2374l.6857.3137c.5827.2667 1.149.564 1.6963.8904.1985.1187 1.2541.8479.7308.4579.5955.4579 1.1639.9497 1.7143 1.4585 1.7413 1.6281 3.4105 3.3918 4.9714 5.1386.1534.1696.9654 1.1617.5774.6614.379.4918.7579.9837 1.1188 1.4924.6978 1.0151 1.3305 2.0685 1.8948 3.1545.0631.1102.3158.6698 0 .0763.0992.212.1894.4409.2797.6614.2165.5512.415 1.1193.5955 1.6959.347 1.1375.6093 2.2964.7849 3.4682-.1082-.7462 0 .5172.0632.7631.0451.5936.0722 1.1872.0902 1.7892.0165 1.2002-.0347 2.4003-.1534 3.5954l-.0812.7123c-.1353 1.1447.0993-.441 0 .2459-.1082.5257-.1895 1.0684-.2977 1.5941-.2436 1.1787-.5504 2.3489-.9023 3.5021s-.7398 2.1878-1.1729 3.2562c-.2075.5427-.4331 1.0769-.6677 1.6026-.2977.6699.388-.7971-.1443.3223l-.5053 1.0429c-2.2426 4.3807-4.7365 8.6437-7.4707 12.7703l-8.8421 13.8048c-2.815 4.4349-5.7293 8.8273-8.3639 13.3639-1.2722 2.1962-2.4631 4.4433-3.5188 6.784-.8301 1.831-.6406 4.18 1.4617 5.223 1.7413.823 4.6466.551 5.5488-1.407z"/><path d="m43.576 77.5805c1.4652-2.9157 3.1445-5.732 5.0256-8.4287l7.6421-11.6001c2.4722-3.748 4.9714-7.5553 6.3158-11.7442 1.3443-4.189 1.4887-8.8952-.6858-12.7958-1.3362-2.1462-2.9955-4.0998-4.9263-5.8-.854-.8528-1.8431-1.5764-2.9323-2.1454-6.7489-3.3918-14.7429-1.6959-18.4692-.1356-1.6688.7947-3.1556 1.8895-4.3759 3.2222-1.5765 1.4937-2.9412 3.1724-4.0602 4.9945-2.4391 4.1817-3.198 9.0479-2.1383 13.7115 2.2105 8.963 18.6045 30.7216 18.6045 30.7216z"/></g></svg>

<svg width="87" height="120" viewBox="0 0 87 120" fill="none" xmlns="http://www.w3.org/2000/svg">
<path d="M9.26836 64.9642L34.7709 110.593C38.5873 117.422 48.4127 117.422 52.2291 110.593L77.7316 64.9642C88.217 46.2037 82.606 22.1974 64.8305 10.4531C51.8334 1.8659 35.1667 1.8659 22.1696 10.4531C4.39403 22.1974 -1.21706 46.2037 9.26836 64.9642Z" fill="white" stroke="white" stroke-width="8"/>
<path d="M46.797 104.114C49.1086 99.299 51.7675 94.6385 54.7549 90.1646C57.8346 85.3255 60.9173 80.4837 64.0031 75.639C69.6512 66.7693 76.0933 57.8318 78.7549 47.6563C80.1237 42.6242 80.3542 37.3783 79.4316 32.2573C78.4572 27.0678 75.7324 22.5906 72.2136 18.5712C68.8031 14.6791 65.0587 10.8717 60.0692 8.81968C55.2704 6.83424 50.0623 5.87556 44.8211 6.01293C40.5211 6.11866 36.2627 6.83333 32.1895 8.13283C30.2227 8.7234 28.3314 9.51684 26.5504 10.4986C24.2886 11.8928 22.2345 13.5638 20.4422 15.4677C18.4756 17.4546 16.6405 19.553 14.9474 21.7511C13.3737 23.901 12.0688 26.2142 11.0587 28.645C9.03082 33.3036 7.99178 38.2899 8.00005 43.3232C8.00005 50.1662 10.4091 56.2461 13.4136 62.3599C16.3188 68.2363 19.7294 73.9091 23.185 79.4972C28.3279 87.7281 33.7594 95.8035 39.4797 103.723L39.7685 104.13C40.9685 105.776 43.3775 106.674 45.3264 105.496C47.0677 104.444 48.0331 102.036 46.788 100.272C42.1955 93.9719 37.8286 87.5528 33.597 80.9896C30.1053 75.5457 26.7038 70.0764 23.582 64.4544C22.1474 61.9105 20.776 59.2649 19.5309 56.6023L19.1339 55.7543C18.9083 55.2794 19.5399 56.6871 19.2422 56.0002L19.0797 55.6271C18.8091 55.0251 18.5564 54.4145 18.3128 53.804C17.8978 52.7525 17.5098 51.7011 17.176 50.6241C17.0407 50.1662 16.9143 49.7168 16.8061 49.2589C16.6978 48.801 16.5625 48.2244 16.4722 47.6987C16.4271 47.4612 16.391 47.2238 16.3459 46.9864C16.4903 47.8344 16.3459 46.6387 16.3008 46.5709C16.0482 44.2847 16.0482 41.9801 16.3008 39.6939C16.3008 39.7448 16.4542 38.5577 16.373 39.1173C16.2918 39.677 16.4813 38.4898 16.4722 38.5407C16.5534 38.0574 16.6527 37.5825 16.7519 37.1076C17.0191 35.9196 17.3503 34.7451 17.7444 33.5886C17.9339 33.0035 18.1414 32.4354 18.367 31.8927C18.4572 31.6807 18.9625 30.5105 18.6828 31.121C19.1911 30.0016 19.7695 28.9115 20.4151 27.8564C21.0589 26.8259 21.7669 25.832 22.5354 24.8801C22.9865 24.3119 21.9489 25.5499 22.761 24.6087L23.2662 24.0236C23.6903 23.5403 24.1685 23.0654 24.5745 22.5906C26.115 20.836 27.8146 19.2103 29.6542 17.7317C28.9955 18.232 29.9519 17.5367 30.0151 17.4943C30.0782 17.4519 30.4211 17.2315 30.6286 17.1127C31.0997 16.8319 31.5877 16.5771 32.0903 16.3496C32.3804 16.1664 32.7004 16.0289 33.0376 15.9425C32.4602 15.9425 32.3068 16.2224 32.7038 16.0782L33.4978 15.7899C35.1393 15.2163 36.8216 14.7516 38.5324 14.3993C39.4346 14.2042 40.3369 14.0686 41.2391 13.9159C41.8888 13.8057 40.2286 14.0177 41.2391 13.9159L41.8888 13.8481C42.4933 13.7887 43.1068 13.7379 43.6933 13.7124C44.8843 13.6446 45.976 13.6446 47.0587 13.6446C47.5279 13.6446 47.9609 13.687 48.4572 13.7209L49.3594 13.7887L49.8828 13.8481H49.6933C50.8301 14.0262 51.9579 14.2212 53.0767 14.501C53.5459 14.6197 54.0241 14.7554 54.4933 14.8911L55.3955 15.1794L56.1354 15.4423C55.6121 15.2387 56.7579 15.7051 56.7038 15.6797L57.3895 15.9934C57.9722 16.2601 58.5385 16.5574 59.0858 16.8838C59.2843 17.0025 60.3399 17.7317 59.8166 17.3417C60.4121 17.7996 60.9805 18.2914 61.5309 18.8002C63.2722 20.4283 64.9414 22.192 66.5023 23.9388C66.6557 24.1084 67.4677 25.1005 67.0797 24.6002C67.4587 25.092 67.8376 25.5839 68.1985 26.0926C68.8963 27.1077 69.529 28.1611 70.0933 29.2471C70.1564 29.3573 70.4091 29.9169 70.0933 29.3234C70.1925 29.5354 70.2827 29.7643 70.373 29.9848C70.5895 30.536 70.788 31.1041 70.9685 31.6807C71.3155 32.8182 71.5778 33.9771 71.7534 35.1489C71.6452 34.4027 71.7534 35.6661 71.8166 35.912C71.8617 36.5056 71.8888 37.0992 71.9068 37.7012C71.9233 38.9014 71.8721 40.1015 71.7534 41.2966L71.6722 42.0089C71.5369 43.1536 71.7715 41.5679 71.6722 42.2548C71.564 42.7805 71.4827 43.3232 71.3745 43.8489C71.1309 45.0276 70.8241 46.1978 70.4722 47.351C70.1203 48.5042 69.7324 49.5388 69.2993 50.6072C69.0918 51.1499 68.8662 51.6841 68.6316 52.2098C68.3339 52.8797 69.0196 51.4127 68.4873 52.5321L67.982 53.575C65.7394 57.9557 63.2455 62.2187 60.5113 66.3453L51.6692 80.1501C48.8542 84.585 45.9399 88.9774 43.3053 93.514C42.0331 95.7102 40.8422 97.9573 39.7865 100.298C38.9564 102.129 39.1459 104.478 41.2482 105.521C42.9895 106.344 45.8948 106.072 46.797 104.114Z" fill="#D93829"/>
<path d="M43.576 77.5805C45.0412 74.6648 46.7205 71.8485 48.6016 69.1518L56.2437 57.5517C58.7159 53.8037 61.2151 49.9964 62.5595 45.8075C63.9038 41.6185 64.0482 36.9123 61.8737 33.0117C60.5375 30.8655 58.8782 28.9119 56.9474 27.2117C56.0934 26.3589 55.1043 25.6353 54.0151 25.0663C47.2662 21.6745 39.2722 23.3704 35.5459 24.9307C33.8771 25.7254 32.3903 26.8202 31.17 28.1529C29.5935 29.6466 28.2288 31.3253 27.1098 33.1474C24.6707 37.3291 23.9118 42.1953 24.9715 46.8589C27.182 55.8219 43.576 77.5805 43.576 77.5805Z" fill="#D93829"/>
</svg>
